tracks/ceylon.svg

<svg width="96" height="96" fill="none" xmlns="http://www.w3.org/2000/svg">
  <path d="M44 2.3093a8 8 0 018 0l33.5692 19.3812a8 8 0 014 6.9282v38.7624a7.9998 7.9998 0 01-4 6.9282L52 93.6905a7.9998 7.9998 0 01-8 0L10.4308 74.3093a7.9998 7.9998 0 01-4-6.9282V28.6187a8 8 0 014-6.9282L44 2.3093z" fill="#fff"/>
  <path fill-rule="evenodd" clip-rule="evenodd" d="M84.1907 22.9024L51.5701 4.069a7.233 7.233 0 00-7.2331 0L11.7165 22.9024a7.2332 7.2332 0 00-3.6166 6.2641v37.667a7.233 7.233 0 003.6166 6.264L44.337 91.931a7.233 7.233 0 007.2331 0l32.6206-18.8335a7.233 7.233 0 003.6165-6.264v-37.667a7.2333 7.2333 0 00-3.6165-6.2641zM53.1201 1.3844a10.333 10.333 0 00-10.333 0L10.1665 20.2178A10.3332 10.3332 0 005 29.1665v37.667a10.333 10.333 0 005.1665 8.9486l32.6206 18.8335a10.333 10.333 0 0010.333 0l32.6205-18.8335a10.333 10.333 0 005.1666-8.9486v-37.667a10.3332 10.3332 0 00-5.1666-8.9487L53.1201 1.3844z" fill="#34495E"/>
  <path d="M39.1575 57.9224a5.7696 5.7696 0 01-1.05-.375c-.7687 1.2075-2.55 4.2637-2.805 7.0312h4.6125a23.3307 23.3307 0 01-.7575-6.6562zM54.105 55.47a34.3848 34.3848 0 00-2.1412 6.4425c-.1988.8925.405 1.7813.2925 2.6663h5.8012c-1.53-4.2225-1.875-10.365-2.6662-12.8213-.0188-.0337-1.2638 3.7425-1.2863 3.7125z" fill="#34495E"/>
  <path d="M70.62 40.9462c-1.32-1.875-4.3312-3.45-5.0325-5.5913-.18-.5475-.21-1.6725.135-2.1975.345-.525-.2025-.375-.2025-.375-.75.2888-1.0725-.5362-1.0725-.5362-.1125-.2888.0413-1.17-.6037-.69-1.1625.8737-.78 3-.5625 3.855a8.91 8.91 0 002.2125 3.8775c.375.3487 2.7375 2.9475 2.415 4.2787a1.0692 1.0692 0 01-.8063.9825c-1.7212.345-2.28-1.7662-2.28-1.7662-1.29-5.5088-3.375-7.4363-3.375-7.4363a40.9018 40.9018 0 00-10.0725.885c-12.8887-.4837-22.5862 3.4763-22.5862 3.4763-2.835 4.0687-4.5 11.625-4.5 11.625s0 .0375.0262.0412a.1006.1006 0 00.0975-.0487 23.7725 23.7725 0 013.5888-3.6225c-.27 10.5 2.1075 16.875 2.1075 16.875h4.5c.3187-3.7838 3.2887-7.9538 3.2887-7.9538 1.6725 1.2675 5.4525.8925 5.4525.8925.6675 2.5275 2.025 7.0575 2.025 7.0575h5.4225a34.2851 34.2851 0 012.9513-9.99s1.3425-3.045 1.3762-3.96c.0863-1.5937 1.5938-2.0662 2.4113-2.0662.8175 0 4.5375 2.0775 7.3162 1.9387 4.8413-.2437 6.75-2.4825 6.8438-5.0362.075-1.755-.3375-3.4613-1.0763-4.515zm-15.5587 5.4112a.8382.8382 0 01-.1013.2025.5551.5551 0 01-.1912.1763.5214.5214 0 01-.2738.06.8076.8076 0 01-.2475-.0563 2.3575 2.3575 0 01-.705-.495c-.1012-.0937-.195-.1912-.285-.285l-.2625-.2737a1.6771 1.6771 0 00-.555-.3113c-.2212-.0787-.4612-.1425-.7125-.2025-.2512-.06-.5025-.1237-.7762-.2137a1.8571 1.8571 0 01-.2175-.0863l-.1088-.0412a.9113.9113 0 01-.1425-.1013.9335.9335 0 01-.21-.2625 1.1424 1.1424 0 01-.105-.2775 1.8486 1.8486 0 01-.0375-.495 3.2602 3.2602 0 01.0488-.435 6.3726 6.3726 0 01.2062-.7987c.0825-.25.1738-.5.2738-.75.0487-.1238.0975-.2438.1537-.375a3.9772 3.9772 0 01.195-.375 4.2186 4.2186 0 011.095-1.2113c.214-.161.4411-.304.6788-.4275a3.8698 3.8698 0 01.75-.3 6.8574 6.8574 0 00-1.155 1.0163 4.6145 4.6145 0 00-.8213 1.2112 3.2434 3.2434 0 00-.1275.3338l-.1162.375c-.075.2437-.15.4875-.21.7312a6.7568 6.7568 0 00-.1538.7163 2.9154 2.9154 0 00-.0337.3375c-.005.0943.0025.1889.0225.2812a.2427.2427 0 00.06.1275l.0525.03.1462.06c.2175.0825.4688.1463.72.225.2617.0781.5185.172.7688.2813.2859.1169.5422.2963.75.525.0937.1162.1612.2175.24.3225l.2287.3037a3.399 3.399 0 00.2363.2775c.0746.0825.159.1555.2512.2175a.3038.3038 0 00.2288.0638.4201.4201 0 00.2212-.1913 1.7797 1.7797 0 00.165-.3337c.0488-.12.0863-.2438.1275-.375.0249.2684.0007.539-.0712.7987zm4.7925-3.345a.8212.8212 0 11-.33-.945.72.72 0 01.33.945z" fill="#34495E"/>
</svg>

<svg width="96" height="96" viewBox="0 0 96 96" fill="none" xmlns="http://www.w3.org/2000/svg">
<path d="M44 2.30935C46.4752 0.880283 49.5248 0.880284 52 2.30935L85.5692 21.6905C88.0444 23.1196 89.5692 25.7606 89.5692 28.6187V67.3811C89.5692 70.2393 88.0444 72.8803 85.5692 74.3093L52 93.6905C49.5248 95.1196 46.4752 95.1196 44 93.6905L10.4308 74.3093C7.95558 72.8803 6.43079 70.2393 6.43079 67.3811V28.6187C6.43079 25.7606 7.95558 23.1196 10.4308 21.6905L44 2.30935Z" fill="white"/>
<path fill-rule="evenodd" clip-rule="evenodd" d="M84.1907 22.9024L51.5701 4.06896C49.3322 2.77689 46.575 2.77689 44.337 4.06896L11.7165 22.9024C9.47853 24.1945 8.09991 26.5824 8.09991 29.1665V66.8335C8.09991 69.4176 9.47853 71.8055 11.7165 73.0975L44.337 91.931C46.575 93.2231 49.3322 93.2231 51.5701 91.931L84.1907 73.0975C86.4286 71.8055 87.8072 69.4176 87.8072 66.8335V29.1665C87.8072 26.5824 86.4286 24.1945 84.1907 22.9024ZM53.1201 1.38436C49.923 -0.461454 45.9841 -0.461455 42.7871 1.38436L10.1665 20.2178C6.96946 22.0637 5 25.4749 5 29.1665V66.8335C5 70.5251 6.96946 73.9363 10.1665 75.7821L42.7871 94.6156C45.9841 96.4614 49.923 96.4614 53.1201 94.6156L85.7406 75.7821C88.9377 73.9363 90.9071 70.5251 90.9071 66.8335V29.1665C90.9071 25.4749 88.9377 22.0637 85.7406 20.2178L53.1201 1.38436Z" fill="#34495E"/>
<path d="M39.1575 57.9225C38.7962 57.8318 38.4446 57.7062 38.1075 57.5475C37.3388 58.755 35.5575 61.8112 35.3025 64.5787H39.915C39.3436 62.408 39.0885 60.1661 39.1575 57.9225V57.9225Z" fill="#34495E"/>
<path d="M54.105 55.4699C53.1805 57.5415 52.4632 59.6996 51.9638 61.9124C51.765 62.8049 52.3688 63.6937 52.2563 64.5787H58.0575C56.5275 60.3562 56.1825 54.2137 55.3913 51.7574C55.3725 51.7237 54.1275 55.4999 54.105 55.4699Z" fill="#34495E"/>
<path d="M70.62 40.9462C69.3 39.0712 66.2888 37.4962 65.5875 35.3549C65.4075 34.8074 65.3775 33.6824 65.7225 33.1574C66.0675 32.6324 65.52 32.7824 65.52 32.7824C64.77 33.0712 64.4475 32.2462 64.4475 32.2462C64.335 31.9574 64.4888 31.0762 63.8438 31.5562C62.6813 32.4299 63.0638 34.5562 63.2813 35.4112C63.6778 36.8705 64.4392 38.2049 65.4938 39.2887C65.8688 39.6374 68.2313 42.2362 67.9088 43.5674C67.8972 43.7959 67.8127 44.0147 67.6676 44.1916C67.5224 44.3684 67.3244 44.494 67.1025 44.5499C65.3813 44.8949 64.8225 42.7837 64.8225 42.7837C63.5325 37.2749 61.4475 35.3474 61.4475 35.3474C58.0663 35.2247 54.683 35.5219 51.375 36.2324C38.4863 35.7487 28.7888 39.7087 28.7888 39.7087C25.9538 43.7774 24.2888 51.3337 24.2888 51.3337C24.2888 51.3337 24.2888 51.3712 24.315 51.3749C24.3342 51.377 24.3536 51.3735 24.3709 51.3648C24.3882 51.3562 24.4026 51.3428 24.4125 51.3262C25.4754 49.9935 26.6786 48.7791 28.0013 47.7037C27.7313 58.2037 30.1088 64.5787 30.1088 64.5787H34.6088C34.9275 60.7949 37.8975 56.6249 37.8975 56.6249C39.57 57.8924 43.35 57.5174 43.35 57.5174C44.0175 60.0449 45.375 64.5749 45.375 64.5749H50.7975C51.2667 61.1141 52.2619 57.7452 53.7488 54.5849C53.7488 54.5849 55.0913 51.5399 55.125 50.6249C55.2113 49.0312 56.7188 48.5587 57.5363 48.5587C58.3538 48.5587 62.0738 50.6362 64.8525 50.4974C69.6938 50.2537 71.6025 48.0149 71.6963 45.4612C71.7713 43.7062 71.3588 41.9999 70.62 40.9462ZM55.0613 46.3574C55.0368 46.4292 55.0028 46.4973 54.96 46.5599C54.9111 46.633 54.8456 46.6934 54.7688 46.7362C54.6847 46.7808 54.59 46.8016 54.495 46.7962C54.4101 46.7906 54.3265 46.7716 54.2475 46.7399C53.9841 46.6196 53.7451 46.4518 53.5425 46.2449C53.4413 46.1512 53.3475 46.0537 53.2575 45.9599L52.995 45.6862C52.8316 45.548 52.6432 45.4423 52.44 45.3749C52.2188 45.2962 51.9788 45.2324 51.7275 45.1724C51.4763 45.1124 51.225 45.0487 50.9513 44.9587C50.8838 44.9362 50.8125 44.9099 50.7338 44.8724L50.625 44.8312C50.5744 44.8021 50.5267 44.7682 50.4825 44.7299C50.3972 44.6559 50.3261 44.5669 50.2725 44.4674C50.2256 44.3799 50.1903 44.2866 50.1675 44.1899C50.1328 44.0274 50.1202 43.8609 50.13 43.6949C50.1365 43.549 50.1528 43.4037 50.1788 43.2599C50.2302 42.9895 50.2991 42.7227 50.385 42.4612C50.4675 42.2112 50.5588 41.9612 50.6588 41.7112C50.7075 41.5874 50.7563 41.4674 50.8125 41.3362C50.8709 41.2078 50.9359 41.0827 51.0075 40.9612C51.2901 40.49 51.6621 40.0785 52.1025 39.7499C52.3165 39.5889 52.5436 39.4459 52.7813 39.3224C53.0201 39.1965 53.2715 39.096 53.5313 39.0224C53.1094 39.3168 52.7219 39.6577 52.3763 40.0387C52.0398 40.3962 51.7626 40.8051 51.555 41.2499C51.5064 41.3588 51.4638 41.4702 51.4275 41.5837L51.3113 41.9587C51.2363 42.2024 51.1613 42.4462 51.1013 42.6899C51.0371 42.9257 50.9858 43.1648 50.9475 43.4062C50.9297 43.5179 50.9185 43.6306 50.9138 43.7437C50.9088 43.838 50.9163 43.9326 50.9363 44.0249C50.9433 44.0724 50.9641 44.1168 50.9963 44.1524V44.1524L51.0488 44.1824L51.195 44.2424C51.4125 44.3249 51.6638 44.3887 51.915 44.4674C52.1767 44.5455 52.4335 44.6394 52.6838 44.7487C52.9697 44.8656 53.226 45.045 53.4338 45.2737C53.5275 45.3899 53.595 45.4912 53.6738 45.5962L53.9025 45.8999C53.9775 45.9974 54.0563 46.0912 54.1388 46.1774C54.2134 46.2599 54.2978 46.3329 54.39 46.3949C54.4219 46.4204 54.4586 46.4391 54.4979 46.4501C54.5372 46.4611 54.5783 46.464 54.6188 46.4587C54.713 46.4235 54.7916 46.3556 54.84 46.2674C54.9065 46.1623 54.9618 46.0504 55.005 45.9337C55.0538 45.8137 55.0913 45.6899 55.1325 45.5587C55.1574 45.8271 55.1332 46.0977 55.0613 46.3574V46.3574ZM59.8538 43.0124C59.7999 43.1753 59.6964 43.3172 59.5578 43.4183C59.4192 43.5193 59.2524 43.5744 59.0809 43.5758C58.9093 43.5773 58.7417 43.5249 58.6014 43.4262C58.4611 43.3275 58.3552 43.1873 58.2987 43.0254C58.2421 42.8634 58.2377 42.6878 58.286 42.5232C58.3344 42.3587 58.433 42.2133 58.5682 42.1077C58.7033 42.002 58.8681 41.9413 59.0395 41.9341C59.2109 41.9269 59.3802 41.9735 59.5238 42.0674C59.6906 42.1514 59.8183 42.2969 59.8798 42.4732C59.9414 42.6495 59.9321 42.8429 59.8538 43.0124V43.0124Z" fill="#34495E"/>
</svg>
